packages/calcite-ui-icons/icons/raster-function-template-history-32.svg

<?xml version="1.0" encoding="UTF-8"?><svg id="icons" xmlns="http://www.w3.org/2000/svg" viewBox="0 0 32 32"><defs><style>.cls-1{fill:none;}.cls-1,.cls-2{stroke-width:0px;}</style></defs><path class="cls-2" d="M17,15h-5v-1h5v1ZM11,11h-5v-5h5v5ZM10,7h-3v3h3v-3ZM11,17h-5v-5h5v5ZM10,13h-3v3h3v-3ZM6,18h5v5h-5v-5ZM7,22h3v-3h-3v3ZM17.20001,7.99823c0-3.75635,3.04462-6.79999,6.79999-6.79999,3.75635,0,6.79999,3.04364,6.79999,6.79999,0,3.75549-3.04364,6.79993-6.79999,6.79993-3.75537,0-6.79999-3.04443-6.79999-6.79993ZM18.20001,7.99847c0,3.19855,2.60138,5.79974,5.79999,5.79974s5.79999-2.6012,5.79999-5.79974-2.60126-5.80023-5.79999-5.80023-5.79999,2.60168-5.79999,5.80023ZM27,8h-3v-4h-1v5h4v-1ZM12,8v1h3.81708c-.04004-.32855-.06689-.66089-.06696-1h-3.75012ZM12,21h4.67285l.12598-.84668c.00769-.05536.02209-.09937.03064-.15332h-4.82947v1ZM18.85553,22l.20111-1.41113c.20215-1.37207.35248-2.37006,1.72455-2.37006.30573,0,.59283.06726.86432.16986l.35449-1.18561c-.23444-.1347-.64258-.20306-.98151-.20306-2.13177,0-2.96185,1.37109-3.23041,3.30078l-.25385,1.69922h-1.72662l-.15332,1h1.72559l-.96387,7h1.32129l.96393-7h1.92969l.15332-1h-1.92871ZM28.17773,22l-2.40912,2.87299-1.71002-2.87299h-1.74506l2.34369,3.69336-3.8808,4.30664h1.65717l2.97461-3.45312,2.05182,3.45312h1.76068l-2.70209-4.30664,3.28217-3.69336h-1.62305ZM3,25.00201V4c0-.55273.44727-1,.99902-1h13.45282c.27362-.35754.5741-.69177.90131-1H3.99799c-1.1015,0-1.98899.90625-1.98899,2.00781l-.009,20.99017c0,1.10358.89648,2.00201,1.99799,2.00201h11.82135l.1377-1H3.99902c-.55176,0-.99902-.44733-.99902-.99799ZM19,16.46313v-1.9184c-.35754-.27374-.69177-.57458-1-.90204v3.59253c.30359-.33698.64319-.58734,1-.77209ZM5,24V5h11.32233c.13507-.34467.28845-.67957.46686-1H4v21h12.09473l.1377-1H5Z"/><rect class="cls-1" width="32" height="32"/></svg>

<svg xmlns="http://www.w3.org/2000/svg" viewBox="0 0 32 32"><path d="M17 15h-5v-1h5v1zm-6-4H6V6h5v5zm-1-4H7v3h3V7zm1 10H6v-5h5v5zm-1-4H7v3h3v-3zm-4 5h5v5H6v-5zm1 4h3v-3H7v3zM17.2 7.998a6.8 6.8 0 0 1 6.8-6.8 6.8 6.8 0 0 1 6.8 6.8 6.8 6.8 0 0 1-13.6 0zm1 0c0 3.199 2.601 5.8 5.8 5.8s5.8-2.601 5.8-5.8-2.601-5.8-5.8-5.8-5.8 2.602-5.8 5.8zM27 8h-3V4h-1v5h4V8zM12 8v1h3.817a8.257 8.257 0 0 1-.067-1H12zm0 13h4.673l.126-.847c.008-.055.022-.099.03-.153H12v1zm6.856 1l.2-1.411c.203-1.372.353-2.37 1.725-2.37.306 0 .593.067.865.17L22 17.203c-.234-.135-.643-.203-.982-.203-2.131 0-2.961 1.371-3.23 3.3l-.254 1.7h-1.726l-.154 1h1.726l-.964 7h1.321l.964-7h1.93l.153-1h-1.928zm9.322 0l-2.41 2.873L24.059 22h-1.744l2.343 3.693L20.777 30h1.657l2.974-3.453L27.46 30h1.76l-2.701-4.307L29.8 22h-1.623zM3 25.002V4a1 1 0 0 1 .999-1h13.453a8.31 8.31 0 0 1 .901-1H3.998a2.001 2.001 0 0 0-1.989 2.008L2 24.998C2 26.102 2.896 27 3.998 27h11.821l.138-1H3.999A.999.999 0 0 1 3 25.002zm16-8.539v-1.918a8.305 8.305 0 0 1-1-.902v3.592a3.503 3.503 0 0 1 1-.772zM5 24V5h11.322c.135-.345.289-.68.467-1H4v21h12.095l.137-1H5z" stroke-width="0"/><path stroke-width="0" fill="none" d="M0 0h32v32H0z"/></svg>
